X: 33529
T: Rainy Day, The
R: reel
M: 4/4
K: Adorian
AAAG AGAB|cedB cBAc|BGGG BdcA|B/c/def gdBG|
AAAG AGAB|c2AB cdef|g2af gedB|GBdB BAA2:|
eaag e2ag|edef gafg|agfa g2dB|GAB/c/d edBd|
e2ag e2ag|edef g3f|gedB GABd|gedB BAA2:|

